X:43
T:L\"ordagskv\"allen
R:polska J
C:Lars Fredriksson
A:H\"alsingland
Z:id:hn-jp-43
M:3/4
L:1/16
K:Bb
f2ga b2a2 g2f2 | edcB ABcA B4 | B2Bd c2ce d2Bd | dcAc B2F2 E2D2 |
f2ga b2a2 g2f2 | edcB ABcA B4 | B2Bd c2ce d2Bd |1 dcAc B8 :|2 dcAc B6 F2 |
|: EBgB EBgB EBgB | DBfB DBfB DBfB | Fcac Fcac Fcac | Fdbd Fdbd Fdbd |
EBgB EBgB EBgB | DBfB DBfB DBfB | f2gf e2d2 c3B |1  F2Ac B6 F2 :|2  F2Ac B6 A2 ||
|: G2GA BABc d2B2 | g2fe d4 B4 | edcB ABcA B2G2 | ^FGAF G2D2 B,2G,2 |
G2GA BABc d2B2 | g2fe d4 B4 | edcB ABcA B2G2 | ^FGAF G8 :|

